X:1
T:Erinnerung an Steinbach
T:Erinnerung an Steinbach
T:Idylle von Joh. Kafka, Op. 32.
T:Transcript. de Guill. Popp, Op. 285. No 2.
T:18??
T:18??
T:18??
C:Transcript. de Guill. Popp, Op. 285. No 2.
Z:18??
%%score 1 { 2 | ( 3 4 ) }
L:1/8
Q:1/4=120
M:4/4
K:G
V:1 treble nm="Flauto"
V:2 treble nm="Piano."
V:3 bass 
V:4 bass 
V:1
"^INTRODUCTION""^Maestoso." z/ | z8 | z/!mp! (e/f/e/ ^d/e/g/b/ e'2) z2 | z8 | %4
 z/!mp! (c/d/c/ B/c/e/g/ c'2) z2 | z4 (e'/^c'/_b/g/ e/^c/_B/G/) | d4"_cresc." (g'd'/=b/ g/d/B/G/) | %7
 A4 (A/G/D/G/ A/d/g/a/) |!f! (d'/a/).f/.d/ (^c/d/).f/.a/ (d'/a/).f/.d/ (c/d/).f/.a/ | %9
 !fermata!d'2"_Cadenza" (d'/c'/b/c'/ b/c'/e'/c'/) (b/a/^g/a/ g/a/c'/a/) (=g/f/^e/f/ e/f/a/f/) d.^c/.d/ (=e/d/)(^e/d/)(^f/d/)(g/d/)(^g/d/)!p! a2 z"_dim." (d ^a2) z (d | %10
[M:6/8][Q:1/4=135]"^Allegretto"!p! b>)bf a>ag | g>g^d g>ge | =d>d'c' b>ba | %13
 (!>!e'3!>(! d'^c'=c'!>)! | b>)!p!bf a>ag | f>f^d f>fe | =d>d'c' b>ba | g2 z z2 B |!mf! A>Ag f>fe | %19
 d>dd' ^c'>c'b | _b>ba g>ge | %21
 d"_ritard."[Q:1/4=135](e'[Q:1/4=132]=b[Q:1/4=129] f'[Q:1/4=126]c'[Q:1/4=123]a) | %22
!p![Q:1/4=120]"^120" b>bf a>ag | f>f^d f>fe | =d>d'c' b>ba |!>(! (e'3 d'^c'=c'!>)! | %26
 b>)!p!bf a>ag | f>f^d f>fe | =d>d'c' b>ba | g2 z z2"_can-" d' |"_tabile" (d'2 c') (be').b | %31
 (d'2 c') (c'a).b | c'2 ^c' (d'f'>).e' | e'2 d' z (d'c') | b2- b b{/d'}(c'b) | b2 a (ad').c' | %36
 b2 d({ed^cd)} (b2 a) | g2 z z2 z |[Q:1/4=120]"_animato" z6 | z6 | z6 | %41
 z2 z z!p![Q:1/4=135]"_a tempo" d'>_e' | (d'2 c') (_e'/d'/).c'/._b/.a/.g/ | %43
 (g2 =f) (f/e/f/)._b/.d'/.=f'/ | (_e'2 =f) (f/=e/f/).a/.d'/.e'/ | (d'2 _b) z/ (d/^c/d/_e/d/) | %46
 (d'2 a) z/ (a/^g/a/c'/_b/) | (a2 =g) z/ (g/^f/g/a/g/) | %48
"_molto riten."[Q:1/4=135] (c'2[Q:1/4=128] _b)[Q:1/4=124]"^.5" (b/[Q:1/4=122]"^.8"a/[Q:1/4=121]c'/[Q:1/4=119]"^.3"b/[Q:1/4=117]"^.5"a/[Q:1/4=115]"^.8"g/)[Q:1/4=131]"^.5" | %49
[Q:1/4=114] d'3-[Q:1/4=103]"^.5" d'[Q:1/4=100] z z[Q:1/4=110]"^.5"[Q:1/4=107] | %50
[Q:1/4=135]"^a tempo"!p! b>bf a>ag | f>f^d f>fe | =d>d'c' b>ba | (!>!e'3 d'^c'=c' | b>)bf a>ag | %55
 f>f=d f>fe | =d>d'c' b>ba | g2 z z2!p! d | %58
"_legg."[Q:1/4=145]"^Più mosso." .d/.d/.d'/.d'/.c'/.c'/ .b/.b/.a/.a/.g/.g/ | %59
 .e/.e/.e'/.e'/.d'/.d'/ .c'/.c'/.b/.b/.a/.a/ | .f/.f/.f'/.f'/.e'/.e'/ .d'/.d'/.c'/.c'/.a/.a/ | %61
 .g/.g/.b/.b/.a/.a/ .g/.g/.f/.f/.e/.e/ | .d/.d/.d'/.d'/.c'/.c'/ .b/.b/.a/.a/.g/.g/ | %63
 .e/.e/.e'/.e'/.d'/.d'/ .c'/.c'/.b/.b/.a/.a/ | .f/.f/.f'/.f'/.e'/.e'/ .d'/.d'/.c'/.c'/.a/.a/ | %65
 (Tg3{fg} g') z B | .A/.^G/.A/.=g/.f/.e/ .^d/.e/.f/.g/(.b/.a/) | %67
 .A/.^G/.A/.f/.e/.d/ .^c/.d/.f/.d'/.^c'/.b/ | .a/.^g/.a/.^a/.^c'/.b/ .=a/.=g/.f/.g/.B/.^c/ | %69
 .d/.A/.f/.d/.a/.f/ .d'/(d/^c/d/{/f}e/d/) | .d/.d/.d'/.d'/.c'/.c'/ .b/.b/.a/.a/.g/.g/ | %71
 .e/.e/.e'/.e'/.d'/.d'/ .c'/.c'/.b/.b/.a/.a/ | .f/.f/.f'/.f'/.e'/.e'/ .d'/.d'/.c'/.c'/.a/.a/ | %73
!f! .g/.d/.b/.g/.d'/.b/ .g' z z |] %74
V:2
!f! [DGB]/ | [DGB]7/2 [CFA]/ [CFA]7/2 [B,EG]/ | [B,EG]4 z2 z3/2!f! [B,EG]/ | %3
 [B,EG]7/2 [A,^DF]/ [A,DF]7/2 [G,CE]/ | [G,CE]4 z4 | %5
"^trem."!p!!<(! !///-![_B,E]2 G,2 !///-![B,E]2 G,2!<)! | %6
 !///-![=B,D]2"_cresc." G,2 !///-![B,D]2 G,2 | !///-![A,D]2 G,2 !///-![A,D]2 G,2 | %8
!f! [F,A,D]2 z2 [F,A,D]2 z2 | !fermata![F,A,D]2 z2 x8 !fermata!z4 x8 x4 z |[M:6/8]!p! z (B,DGDB,) | %11
 z (CEAEC) | z (CDFDC) | (_B,^CE)!>(! (FGA)!>)! | z!p! (=B,DGDB,) | z (CEAEC) | z (CEAEC) | %17
 z (B,DGDB,) |!mf! z (A,^CGCA,) | z (A,DFDA,) | z (A,^CGCA,) | %21
 [A,DF]2"_ritard." z ([^EG][FA][Fd]) |!p! z (B,DGDB,) | z (CEAEC) | z (CDFDC) | (_B,^CE) (FGA) | %26
 z (=B,DGDB,) | z (CEAEC) | z (CDFDC) | z!<(! (B,D GBd)!<)! |!mf! (B2 A G2) G | F2 A (AF).G | %32
 A2 z (cd>).c | (c2 B) z (BA) | ^G2 G G3 | E2 A (EB)A | =G2 z [CDF]2 z | [B,DG]2 z z2!f! D | %38
 .G(G/F/G/A/) _BAG | (d/^c/d/A/F/A/) D^C/D/E/F/ | .G(G/F/G/F/) G=F_E | D3- D z z | %42
!p! z (A,_E=FEA,) | z (_B,D=FDB,) | z (A,_E=FEA,) | z (_B,D=FDB,) | z (CDADC) | z (_B,DGDB,) | %48
 z (G,_B, ^CB,G,) | z (F,A, D) z z |!p! z (B,DGDB,) | z (CEAEC) | z (CDFDC) | (_B,^CE) (FGA) | %54
 z (=B,DGDB,) | z (CEAEC) | z (CDFDC) | [B,G] (gd BGD) |!p! z (B,DGDB,) | z (CEAEC) | z (CDFDC) | %61
 [B,DG]2 z [CDA]2 z | z (B,D GDB,) | z (CE AEC) | [CDA]2 z [CDF]2 z | [B,DG]3- [B,DG] z2 | %66
!p! z2 z .[^CGA] z z | z2 z .[DFA] z z | z2 z .[^CGA] z z | [DFA]3- [DFA] z z | z (B,DGDB,) | %71
 z (CEAEC) | [CDA]2 z [CDF]2 z |!f! GBd .[GBdg] z2 |] %74
V:3
 [G,,G,]/ | [G,,G,]7/2 [D,,D,]/ [D,,D,]7/2 [E,,E,]/ | [E,,E,]4 z2 z3/2 [E,,E,]/ | %3
 [E,,E,]7/2 [B,,,B,,]/ [B,,,B,,]7/2 [C,,C,]/ | [C,,C,]4 z4 | !///-!^C,,2 ^C,2 !///-!C,,2 C,2 | %6
 !///-!D,,2 D,2 !///-!D,,2 D,2 | !///-!D,,2 D,2 !///-!D,,2 D,2 | [D,,D,]2 z2 [D,,D,]2 z2 | %9
 !fermata![D,,D,]2 z2 x8 !fermata!z4 x8 x4 z |[M:6/8] [G,,G,]2 z z2 z | [D,,C,]2 z z2 z | %12
 [D,,D,]2 z z2 z | [G,,G,]2 z [D,,D,]2 z | [G,,G,]2 z z2 z | [C,,C,]2 z z2 z | [C,,C,]2 z z2 z | %17
 [G,,G,]2 z z2 z | [E,,E,]2 z [A,,,A,,]2 z | [D,,D,]2 z [A,,,A,,]2 z | [E,,E,]2 z [A,,,A,,]2 z | %21
 D,2 z B,CC | [G,,G,]2 z z2 z | [C,,C,]2 z z2 z | [D,,D,]2 z z2 z | [G,,G,]2 z [D,,D,]2 z | %26
 [G,,G,]2 z z2 z | [G,,G,]2 z z2 z | [D,,D,]2 z z2 z | [G,,G,]2 z z2 z | G,, (D,G,B,G,D,) | %31
 D,, (D,F,CF,D,) | D,, (D,F,CF,D,) | G,, (D,G,B,G,D,) | E,, (E,B,DB,E,) | A,, (E,A,CA,E,) | %36
 (D,B,D) (D,D,,D,) | G,,D,B,, G,,2 D, | .G,(G,/F,/G,/A,/) _B,A,G, | %39
 (D/^C/D/A,/F,/A,/) D,^C,/D,/E,/F,/ | .G,(G,/F,/G,/F,/) G,=F,_E, | D,3- D, z z | %42
 !arpeggio![=F,,C,=F,]2 z z2 z | !arpeggio![_B,,D,=F,]3 z2 z | !arpeggio![=F,,C,=F,]2 z z2 z | %45
 [_B,,=F,]2 z z2 z | [^F,,D,]6 | [G,,D,]6 | [E,,E,]3 [_E,,_E,]3 | [D,,D,]3- [D,,D,] z z | %50
 [G,,G,]2 z z2 z | [C,,C,]2 z z2 z | [D,,D,]2 z z2 z | [G,,G,]2 z [D,,D,]2 z | [G,,G,]2 z z2 z | %55
 [C,,C,]2 z z2 z | [D,,D,]2 z z2 z | [G,,D,]2 z z2 z | [G,,,G,,]2 z z2 z | [C,,C,]2 z z2 z | %60
 [D,,D,]2 z z2 z | [G,,G,]2 z [D,,D,]2 z | [G,,,G,,]2 z z2 z | [C,,C,]2 z z2 z | %64
 [D,,D,]2 z [D,,D,]2 z | ([G,,G,]D,B,, G,,) z z | [A,,,A,,] z z .[E,G,A,] z z | %67
 [D,,D,] z z .[D,F,A,] z2 | [A,,,A,,] z z .[E,G,A,] z z | D,A,,F,, D,, z z | [G,,,G,,]2 z z2 z | %71
 [C,,C,]2 z z2 z | [D,,D,]2 z [D,,D,]2 z | G,D,B,, .[G,,B,,D,G,] z2 |] %74
V:4
 x/ | x8 | x8 | x8 | x8 | x8 | x8 | x8 | x8 | x29 |[M:6/8] x6 | x6 | x6 | x6 | x6 | x6 | x6 | x6 | %18
 x6 | x6 | x6 | D,,2 z D,2 D, | x6 | x6 | x6 | x6 | x6 | x6 | x6 | x6 | x6 | x6 | x6 | x6 | x6 | %35
 x6 | x6 | x6 | x6 | x6 | x6 | x6 | x6 | x6 | x6 | x6 | x6 | x6 | x6 | x6 | x6 | x6 | x6 | x6 | %54
 x6 | x6 | x6 | x6 | x6 | x6 | x6 | x6 | x6 | x6 | x6 | x6 | x6 | x6 | x6 | x6 | x6 | x6 | x6 | %73
 x6 |] %74

